X: 2
T: B\aatsman D\"ack
T: Lillpolska
C: efter Ceylon och Henry Wallin
S: Bruce Sagan's "scanfolk" session archive
F: https://app.box.com/s/u6iiren0igvsukrhdducy7orq72jayq8/file/918650143670 2022-2-14
R: hambo, polska
Z: 2021 John Chambers <jc:trillian.mit.edu>
M: 3/4
L: 1/8
K: G
"^A"|:\
("G"v[DG,]>G) ("^*"BG) D>B | [B2D2] [B3D2] B/B/ | "D7"c>(B A>G) F>G | [A2C2G,2] [A3C3] D/D/ |
(D>F) "^*"AD F>A | [c2C2G,2] [c3E3] c/c/ | d>c (TB>A) G>A :|1 "G"{A}B2 [B3G3] D/D/ :|2 "G"{A}B2 [B4G4] ||
"^B"|:\
"C"[e2C2G,2C,2] (e>d) c>e | "G"d2 (d/e/)d/c/ B>d | ("D7"TcB) "^*"(AG) (F<A) |\
[1,3 "G"[G2G,2] BG/B/ d2 :|2,4 {A}G2 [G4B,4] :|
%%text * Even note pairs can be played long-short or short-long.
